dist/img/svg/bg/scheme-work/object/gps/big-gps.svg

<svg width="95" height="121" viewBox="0 0 95 121" fill="none" xmlns="http://www.w3.org/2000/svg">
<path d="M80.7359 17.9C71.8036 5.69145 58.8283 0 45.2807 0C45.2807 0 12.1109 0 2.28776 29.5274C-1.33999 40.4093 -0.533825 52.2251 3.85979 62.8224C5.50933 66.851 7.58763 70.6925 10.0592 74.2814C18.6247 86.5742 45.2807 120.178 45.2807 120.178H51.077C58.5018 109.901 77.2492 75.7524 82.8602 64.8184C89.9061 51.0788 90.9863 31.9242 80.7359 17.9ZM50.815 72.5219C45.2102 72.5227 39.731 70.8707 35.0704 67.7749C30.4098 64.6791 26.7772 60.2786 24.632 55.1298C22.4867 49.981 21.9252 44.3153 23.0185 38.8492C24.1117 33.3831 26.8106 28.3621 30.7738 24.4213C34.7371 20.4805 39.7866 17.7968 45.2837 16.7097C50.7809 15.6227 56.4788 16.181 61.6569 18.3141C66.8349 20.4472 71.2605 24.0593 74.3738 28.6936C77.4872 33.3278 79.1486 38.7761 79.1478 44.3492C79.1467 51.8207 76.1613 58.986 70.8481 64.2691C65.5349 69.5523 58.329 72.5208 50.815 72.5219Z" fill="#71D281"/>
<path d="M86.5684 18.1324C77.6401 5.92387 64.6608 0.232422 51.1131 0.232422C51.1131 0.232422 17.9434 0.232422 8.12021 29.7598C4.49246 40.6417 5.29862 52.4575 9.69627 63.0548C11.3436 67.0837 13.4206 70.9253 15.8917 74.5138C24.4572 86.8146 51.1131 120.406 51.1131 120.406C51.1131 120.406 81.9127 78.2774 88.6926 65.0508C95.7385 51.3032 96.8228 32.1566 86.5684 18.1324ZM50.8431 72.7543C45.2386 72.7543 39.7599 71.1018 35.1 68.0057C30.44 64.9096 26.808 60.509 24.6633 55.3604C22.5185 50.2118 21.9574 44.5464 23.0508 39.0806C24.1441 33.6149 26.8429 28.5943 30.8059 24.6537C34.7689 20.7131 39.818 18.0296 45.3148 16.9424C50.8116 15.8551 56.5092 16.4131 61.6871 18.5458C66.8649 20.6784 71.2905 24.2899 74.4042 28.9235C77.5179 33.5571 79.1798 39.0048 79.1798 44.5776C79.2077 48.2856 78.4938 51.962 77.0797 55.3931C75.6655 58.8242 73.5793 61.9414 70.9424 64.5634C68.3055 67.1854 65.1706 69.2598 61.72 70.666C58.2694 72.0722 54.5721 72.782 50.8431 72.7543Z" fill="#8EEE9E"/>
<path d="M50.815 16.1722C44.9592 16.1722 39.2472 17.976 34.4645 21.3357C29.6818 24.6954 26.0633 29.4459 24.1067 34.934C26.2949 30.1303 30.0048 26.1713 34.6694 23.662C39.334 21.1527 44.6966 20.2313 49.9375 21.0384C55.1784 21.8456 60.0094 24.337 63.692 28.1319C67.3746 31.9267 69.7062 36.8162 70.3305 42.053C70.9547 47.2898 69.8373 52.5858 67.1489 57.1316C64.4606 61.6773 60.3492 65.2227 55.4433 67.2258C50.5373 69.2289 45.1067 69.5795 39.9814 68.2241C34.8562 66.8686 30.3183 63.8817 27.0613 59.7198C29.74 63.8097 33.4414 67.1374 37.8027 69.3769C42.1639 71.6163 47.0355 72.6908 51.94 72.4949C56.8446 72.299 61.6138 70.8395 65.7803 68.2594C69.9469 65.6793 73.3679 62.0671 75.7082 57.7768C78.0484 53.4865 79.2275 48.6652 79.13 43.7855C79.0326 38.9057 77.6618 34.1348 75.1521 29.9403C72.6424 25.7457 69.0799 22.2715 64.8135 19.8579C60.5472 17.4444 55.7235 16.1743 50.815 16.1722Z" fill="#71D281"/>
</svg>

<svg width="95" height="121" fill="none" xmlns="http://www.w3.org/2000/svg"><path d="M80.736 17.9C71.804 5.691 58.828 0 45.28 0c0 0-33.17 0-42.993 29.527C-1.34 40.41-.534 52.225 3.86 62.822a60.869 60.869 0 006.2 11.46c8.565 12.292 35.22 45.896 35.22 45.896h5.797c7.425-10.277 26.172-44.426 31.783-55.36 7.046-13.74 8.126-32.894-2.124-46.918zM50.815 72.522a28.452 28.452 0 01-15.745-4.747A28.211 28.211 0 0124.632 55.13a28.028 28.028 0 01-1.614-16.28 28.127 28.127 0 017.756-14.429 28.388 28.388 0 0114.51-7.711 28.488 28.488 0 0116.373 1.604 28.302 28.302 0 0112.717 10.38 28.063 28.063 0 014.774 15.655 28.096 28.096 0 01-8.3 19.92 28.419 28.419 0 01-20.033 8.253z" fill="#71D281"/><path d="M86.568 18.132C77.64 5.924 64.661.232 51.113.232c0 0-33.17 0-42.993 29.528C4.492 40.642 5.3 52.458 9.696 63.055a60.73 60.73 0 006.196 11.459c8.565 12.3 35.221 45.892 35.221 45.892s30.8-42.129 37.58-55.355c7.046-13.748 8.13-32.894-2.125-46.919zM50.843 72.754A28.451 28.451 0 0135.1 68.006 28.211 28.211 0 0124.663 55.36a28.028 28.028 0 01-1.612-16.28 28.127 28.127 0 017.755-14.426 28.387 28.387 0 0114.509-7.712 28.485 28.485 0 0116.372 1.604 28.303 28.303 0 0112.717 10.378 28.063 28.063 0 014.776 15.654 27.831 27.831 0 01-2.1 10.815 27.958 27.958 0 01-6.138 9.17 28.14 28.14 0 01-9.222 6.103 28.267 28.267 0 01-10.877 2.088z" fill="#8EEE9E"/><path d="M50.815 16.172a28.448 28.448 0 00-16.35 5.164 28.194 28.194 0 00-10.358 13.598 24.195 24.195 0 0110.562-11.272 24.397 24.397 0 0115.269-2.624 24.324 24.324 0 0113.754 7.094 24.084 24.084 0 016.639 13.921 24.028 24.028 0 01-3.182 15.079 24.238 24.238 0 01-11.706 10.094 24.407 24.407 0 01-15.462.998 24.288 24.288 0 01-12.92-8.504 28.276 28.276 0 0010.742 9.657 28.467 28.467 0 0027.977-1.118 28.24 28.24 0 009.928-10.482 28.045 28.045 0 003.422-13.992 28.053 28.053 0 00-3.978-13.845 28.257 28.257 0 00-10.338-10.082 28.458 28.458 0 00-13.999-3.686z" fill="#71D281"/></svg>
